svg/color/kmd.svg

<svg width="96" height="96" viewBox="0 0 96 96" fill="none" xmlns="http://www.w3.org/2000/svg">
<g id="color/kmd">
<g id="Group">
<path id="Oval" d="M48 96C74.5097 96 96 74.5097 96 48C96 21.4903 74.5097 0 48 0C21.4903 0 0 21.4903 0 48C0 74.5097 21.4903 96 48 96Z" fill="#2B6680"/>
</g>
<g id="Layer 2">
<g id="Layer 1">
<path id="Vector" d="M15.0001 48.0007C14.9833 56.7528 18.4441 65.1531 24.6209 71.3536C30.7978 77.5542 39.1848 81.047 47.9369 81.0637C56.6891 81.0805 65.0894 77.6197 71.2899 71.4429C77.4905 65.266 80.9833 56.879 81 48.1268V47.8745C80.9888 45.3342 80.6859 42.8036 80.0972 40.3325C79.9895 39.8803 79.7938 39.4538 79.5213 39.0773C79.2488 38.7008 78.9047 38.3817 78.5089 38.1381C78.113 37.8945 77.6731 37.7313 77.2141 37.6578C76.7552 37.5843 76.2863 37.6019 75.8341 37.7096C75.382 37.8173 74.9555 38.013 74.579 38.2855C74.2025 38.558 73.8833 38.902 73.6398 39.2979C73.3962 39.6937 73.233 40.1337 73.1595 40.5926C73.0859 41.0516 73.1035 41.5205 73.2112 41.9726C74.5267 47.4663 74.0124 53.2393 71.7466 58.414C69.4808 63.5887 65.5875 67.8821 60.6583 70.6416C55.7292 73.401 50.0338 74.4756 44.438 73.702C38.8423 72.9284 33.6521 70.3489 29.6565 66.3557C25.6609 62.3624 23.0783 57.1737 22.3015 51.5784C21.5246 45.9831 22.5959 40.2871 25.3525 35.3563C28.109 30.4256 32.4002 26.5297 37.5735 24.2609C42.7469 21.9921 48.5196 21.4744 54.014 22.7867C54.9272 23.0042 55.8893 22.85 56.6888 22.3581C57.4883 21.8662 58.0596 21.0769 58.2771 20.1638C58.4946 19.2506 58.3405 18.2885 57.8486 17.489C57.3567 16.6895 56.5674 16.1182 55.6542 15.9007C50.8056 14.744 45.7578 14.7008 40.8901 15.7745C36.0224 16.8481 31.4611 19.0106 27.5489 22.0997C23.6367 25.1887 20.4752 29.124 18.3018 33.6099C16.1284 38.0959 14.9995 43.0159 15.0001 48.0007" fill="white"/>
<path id="Vector_2" d="M64.6795 23.862C64.6318 23.9069 64.601 23.9601 64.5561 24.0078C63.7514 24.8609 63.2576 25.9602 63.1542 27.1284V27.1284C63.1542 27.3134 63.1542 27.4985 63.1542 27.6891C63.1542 27.8181 63.1262 27.9443 63.1122 28.0732C62.9799 29.4086 62.564 30.7004 61.8922 31.8621C61.2204 33.0238 60.3082 34.0286 59.2167 34.8092C58.1252 35.5899 56.8795 36.1285 55.5631 36.3888C54.2466 36.6492 52.8897 36.6254 51.5832 36.319C51.3458 36.2667 51.1103 36.2022 50.8767 36.1256C48.9229 35.6494 46.8814 35.6661 44.9356 36.174C42.9899 36.682 41.2007 37.6654 39.729 39.0358C39.6085 39.148 39.4767 39.2433 39.3589 39.3611C37.069 41.651 35.7826 44.7568 35.7826 47.9952C35.7826 51.2336 37.069 54.3394 39.3589 56.6293C41.6488 58.9192 44.7546 60.2056 47.993 60.2056C51.2314 60.2056 54.3372 58.9192 56.6271 56.6293C57.1324 56.1165 57.5903 55.559 57.9954 54.9639C58.9811 53.5524 59.6571 51.9484 59.9789 50.2571C60.3008 48.5658 60.2611 46.8256 59.8626 45.1508C59.7926 44.9293 59.7365 44.7106 59.6832 44.4863C59.6832 44.4526 59.6636 44.4218 59.6552 44.3882C59.3514 43.0712 59.3343 41.7042 59.6051 40.3801C59.8758 39.0559 60.4281 37.8054 61.2245 36.7133C62.0209 35.6213 63.0427 34.7132 64.2208 34.0506C65.3988 33.3881 66.7055 32.9865 68.0524 32.8732C68.1225 32.8732 68.1897 32.8536 68.2598 32.8508C68.4589 32.8508 68.658 32.8284 68.857 32.8284H68.9047C70.124 32.7163 71.2652 32.1794 72.129 31.3115C72.3338 31.0987 72.5213 30.87 72.6897 30.6274C73.4504 29.5522 73.7799 28.2307 73.6132 26.9242C73.4465 25.6177 72.7957 24.4212 71.7894 23.5714C70.7832 22.7216 69.4947 22.2802 68.1787 22.3346C66.8628 22.3889 65.6151 22.935 64.6823 23.8648" fill="white"/>
</g>
</g>
</g>
</svg>

<svg width="96" height="96" viewBox="0 0 96 96" fill="none" xmlns="http://www.w3.org/2000/svg"><path d="M48 96c26.51 0 48-21.49 48-48S74.51 0 48 0 0 21.49 0 48s21.49 48 48 48z" fill="#2B6680"/><g fill="#fff"><path d="M15 48a33 33 0 1066 .127v-.253a33.175 33.175 0 00-.903-7.541 3.54 3.54 0 10-6.886 1.64 25.934 25.934 0 11-19.197-19.186 3.54 3.54 0 001.64-6.886A32.996 32.996 0 0015 48"/><path d="M64.68 23.862c-.048.045-.079.098-.124.146a5.218 5.218 0 00-1.402 3.12v.561c0 .13-.028.255-.042.384a9.425 9.425 0 01-12.235 8.053 12.14 12.14 0 00-11.148 2.91c-.12.112-.252.207-.37.325A12.21 12.21 0 0056.627 56.63c.505-.512.963-1.07 1.368-1.665a12.205 12.205 0 001.868-9.813 9.374 9.374 0 01-.18-.665c0-.033-.02-.064-.028-.098a9.428 9.428 0 018.397-11.515c.07 0 .138-.02.208-.022.199 0 .398-.023.597-.023h.048a5.224 5.224 0 003.224-1.517c.205-.212.392-.441.56-.684a5.26 5.26 0 00-8.007-6.762"/></g></svg>
